X:1
T:The Grand Coulee Dam
M:4/4
L:1/4
K:G
 D/2D/2| B, D G A| B B2 A/2A/2| A G G E| G3| G| A A A A| B A2 A| A G F E|\
 D3| D| D D G A| B B B B| A G G E| G3| G/2G/2| A A A A| B A2 A/2A/2|\
 D D E F| G3||
